dist/svgs/unicons/line/robot.svg

<svg xmlns="http://www.w3.org/2000/svg" data-name="Layer 1" viewBox="0 0 24 24"><path d="M9 15a1 1 0 101 1 1 1 0 00-1-1zm-7-1a1 1 0 00-1 1v2a1 1 0 002 0v-2a1 1 0 00-1-1zm20 0a1 1 0 00-1 1v2a1 1 0 002 0v-2a1 1 0 00-1-1zm-5-7h-4V5.72A2 2 0 0014 4a2 2 0 00-4 0 2 2 0 001 1.72V7H7a3 3 0 00-3 3v9a3 3 0 003 3h10a3 3 0 003-3v-9a3 3 0 00-3-3zm-3.28 2l-.5 2h-2.44l-.5-2zM18 19a1 1 0 01-1 1H7a1 1 0 01-1-1v-9a1 1 0 011-1h1.22L9 12.24a1 1 0 001 .76h4a1 1 0 001-.76L15.78 9H17a1 1 0 011 1zm-3-4a1 1 0 101 1 1 1 0 00-1-1z"/></svg>

<svg xmlns="http://www.w3.org/2000/svg" data-name="Layer 1" viewBox="0 0 24 24"><path d="M9,15a1,1,0,1,0,1,1A1,1,0,0,0,9,15ZM2,14a1,1,0,0,0-1,1v2a1,1,0,0,0,2,0V15A1,1,0,0,0,2,14Zm20,0a1,1,0,0,0-1,1v2a1,1,0,0,0,2,0V15A1,1,0,0,0,22,14ZM17,7H13V5.72A2,2,0,0,0,14,4a2,2,0,0,0-4,0,2,2,0,0,0,1,1.72V7H7a3,3,0,0,0-3,3v9a3,3,0,0,0,3,3H17a3,3,0,0,0,3-3V10A3,3,0,0,0,17,7ZM13.72,9l-.5,2H10.78l-.5-2ZM18,19a1,1,0,0,1-1,1H7a1,1,0,0,1-1-1V10A1,1,0,0,1,7,9H8.22L9,12.24A1,1,0,0,0,10,13h4a1,1,0,0,0,1-.76L15.78,9H17a1,1,0,0,1,1,1Zm-3-4a1,1,0,1,0,1,1A1,1,0,0,0,15,15Z"/></svg>
